X: 68
T:Missa L'homme arm\'e sexti toni / Credo
N: Derived from Jos0602c-Missa_Lhomme_arme_sexti_toni-Credo.krn
C: Josquin des Prez
%%abc-version 2.0
%%abcx-abcm2ps-target-version 5.9.1 (29 Sep 2008)
%%abc-creator hum2abc beta
%%abcx-conversion-date 2019/02/12 16:15:41
%%abc-edited-by Jesse Rodin
%%abc-edited-by Jesse Rodin; Victoria Chang 2011/09/04/
%%abcx-initial-encoding-date 2011/09/04/
%%humdrum-veritas 2254659351
%%humdrum-veritas-data 203357679
%%linebreak <none>
%%barnumbers 0
L: 1/4
M: 3/1
Q: 1/2=120
%%staves [1 2 3 4]
V: 1 clef=treble
V: 2 clef=treble-8
V: 3 clef=treble-8
V: 4 clef=bass
K: F
[V:1] z12 | 
[V:2] F8F4 | 
[V:3] z12 | 
[V:4] z12 | 
[V:1] F8F4 | 
[V:2] F4B6A2 | 
[V:3] z12 | 
[V:4] z12 | 
[V:1] F4B6A2 | 
[V:2] A4G6FE | 
[V:3] z12 | 
[V:4] z12 | 
[V:1] A4G6FE | 
[V:2] D2C4D2E4 | 
[V:3] z12 | 
[V:4] z12 | 
[V:1] D2C2F8 | 
[V:2] F8z4 | 
[V:3] z12 | 
[V:4] z12 | 
[V:1] E6F2G4 | 
[V:2] c12- | 
[V:3] z12 | 
[V:4] z12 | 
[V:1] A6G4FE | 
[V:2] c8c4 | 
[V:3] z12 | 
[V:4] z12 | 
[V:1] D4C4F4 | 
[V:2] B4A2F3ED2 | 
[V:3] z12 | 
[V:4] z12 | 
[V:1] E2D4C2B,4 | 
[V:2] C2F2G2A4G2 | 
[V:3] z12 | 
[V:4] z12 | 
[V:1] A,4z4C4 | 
[V:2] A8z2F2- | 
[V:3] z12 | 
[V:4] z12 | 
[V:1] D2E4F2G4 | 
[V:2] F2G2A4B2c2- | 
[V:3] z12 | 
[V:4] z12 | 
[V:1] A4G2A3GFE | 
[V:2] c2F2E2F3GA2 | 
[V:3] z12 | 
[V:4] z12 | 
[V:1] D2C4F3EDC | 
[V:2] B2c2F4B3A | 
[V:3] z12 | 
[V:4] z12 | 
[V:1] B,2A,4D3CB,A, | 
[V:2] GFc2F4d3c | 
[V:3] z12 | 
[V:4] z12 | 
[V:1] G,2F,4F3GB2 | 
[V:2] BAc2F4d4 | 
[V:3] z12 | 
[V:4] z12 | 
[V:1] A2G3FF4E2 | 
[V:2] c2B3AGFG4 | 
[V:3] z12 | 
[V:4] z12 | 
[V:1] F12 | 
[V:2] F6G2A4 | 
[V:3] F12- | 
[V:4] z4z4F,,4 | 
[V:1] z4z4F4 | 
[V:2] D2d4cBA4 | 
[V:3] F12 | 
[V:4] B,,6C,2D,4 | 
[V:1] G4F2G4F_E | 
[V:2] G4z4_E4 | 
[V:3] B12- | 
[V:4] _E,4D,2E,4D,C, | 
[V:1] D3_EFDG3FED | 
[V:2] F4D2_E3FG2 | 
[V:3] B12 | 
[V:4] B,,4z4_E,,4 | 
[V:1] C4z2F3ED2 | 
[V:2] A3Bc2d2z2D2 | 
[V:3] A12- | 
[V:4] F,,2F,3E,D,2C,2D,2 | 
[V:1] C2D2A,2F2E2D2- | 
[V:2] E2D3CD2E2F2 | 
[V:3] A12 | 
[V:4] A,,2F,3E,D,2C,2D,2 | 
[V:1] DCB,A,G,2_E3DC2 | 
[V:2] G3AB2c2z2C2 | 
[V:3] G12- | 
[V:4] G,,2_E,3D,C,2B,,2C,2 | 
[V:1] B,2C2G,2_E2D2C2- | 
[V:2] D2C3B,C2D2E2 | 
[V:3] G12 | 
[V:4] G,,2_E,3D,C,2B,,2C,2 | 
[V:1] CB,A,G,F,2F3ED2 | 
[V:2] F3GA2B2c2d2 | 
[V:3] F12- | 
[V:4] F,,2D,3C,B,,2A,,2B,,2 | 
[V:1] C2D2A,4A,4 | 
[V:2] A2B2c8- | 
[V:3] F12 | 
[V:4] F,,12 | 
[V:1] z12 | 
[V:2] c4z2F4B2 | 
[V:3] z12 | 
[V:4] z2F,,4B,,2A,,2G,,2 | 
[V:1] z12 | 
[V:2] A2G2c3BAGF2- | 
[V:3] z12 | 
[V:4] C,3B,,A,,G,,F,,4B,,2 | 
[V:1] z12 | 
[V:2] F2B2AGc3BAG | 
[V:3] z12 | 
[V:4] A,,2G,,2C,3D,E,2F,2 | 
[V:1] z12 | 
[V:2] FEB3AA4G2 | 
[V:3] z12 | 
[V:4] D,3C,D,C,D,A,,C,D,B,,2 | 
[V:1] z4z2c3BAG | 
[V:2] A8c3B | 
[V:3] z12 | 
[V:4] A,,12 | 
[V:1] FEB3AA4G2 | 
[V:2] AGd4c2B4 | 
[V:3] z12 | 
[V:4] z12 | 
[V:1] A4z2A4F2 | 
[V:2] A4z4z4 | 
[V:3] c8F4 | 
[V:4] z2F,2E,2F,2D,4 | 
[V:1] A2G3FE2D2C2- | 
[V:2] c4G2A2B2c2 | 
[V:3] z12 | 
[V:4] C,4z4z4 | 
[V:1] CDEFG2A4F2 | 
[V:2] z12 | 
[V:3] c8F4 | 
[V:4] C,3D,E,2F,2D,4 | 
[V:1] A2G4A4GF | 
[V:2] c3BG2F2A2B2 | 
[V:3] z12 | 
[V:4] z12 | 
[V:1] E4z4z4 | 
[V:2] c2G2AGc4=B2 | 
[V:3] c8F4 | 
[V:4] [M:9/2](3:2:7C,3D,E,2F,4E,2F,2D,4 | 
[V:1] E6E2E4 | 
[V:2] c8z2G2 | 
[V:3] z2c4c2c4 | 
[V:4] [M:3/1]C,12- | 
[V:1] E8z2E2 | 
[V:2] A2G2c4z4 | 
[V:3] c4z2c3BAG | 
[V:4] C,12 | 
[V:1] F2G3F/G/F3E/F/E2 | 
[V:2] z2c4B2c3B | 
[V:3] F2E2F4G4 | 
[V:4] D,2C,2D,4C,4 | 
[V:1] F4z4C2D2 | 
[V:2] AGF3ED2C2B,2 | 
[V:3] F12- | 
[V:4] F,,3G,,A,,2B,,2A,,2B,,2 | 
[V:1] C2D3CA,2B,4 | 
[V:2] F3EDCC4B,2 | 
[V:3] F8D2E2 | 
[V:4] F,,2B,,3A,,G,,F,,G,,4 | 
[V:1] A,4A2A2A2A2 | 
[V:2] C4z4c2d2 | 
[V:3] F12 | 
[V:4] F,,12 | 
[V:1] AGB3AA4G2 | 
[V:2] c2d3cA2B4 | 
[V:3] z12 | 
[V:4] z12 | 
[V:1] A2c3BA3GF2 | 
[V:2] A4A2A2A2A2 | 
[V:3] z12 | 
[V:4] z12 | 
[V:1] E2D4C2B,4 | 
[V:2] AGB3AA4G2 | 
[V:3] z12 | 
[V:4] z12 | 
[V:1] A,4F,2G,2A,2B,2 | 
[V:2] A8F2G2 | 
[V:3] z12 | 
[V:4] z12 | 
[V:1] C3DE2F2G2A2 | 
[V:2] A2B2c8 | 
[V:3] z12 | 
[V:4] z12 | 
[V:1] B3AGFF4E2 | 
[V:2] G2B4A2G4 | 
[V:3] z12 | 
[V:4] z12 | 
[V:1] F8A4 | 
[V:2] F12 | 
[V:3] c12- | 
[V:4] F,,6F,6 | 
[V:1] G6F2A3G | 
[V:2] C4z4z4 | 
[V:3] c8F4 | 
[V:4] E,6F,2D,4 | 
[V:1] E3FG3FD4 | 
[V:2] c6B6 | 
[V:3] z12 | 
[V:4] C,4z4z4 | 
[V:1] C2E3DG4^F2 | 
[V:2] c3BG2B2A4 | 
[V:3] z12 | 
[V:4] z12 | 
[V:1] G4z4A4 | 
[V:2] G2c3BAGF3E | 
[V:3] c12- | 
[V:4] C,6F,6 | 
[V:1] G6A4GF | 
[V:2] C4z2c4B2 | 
[V:3] c8F4 | 
[V:4] E,6F,2D,4 | 
[V:1] E12 | 
[V:2] c3BA2G3FED | 
[V:3] z12 | 
[V:4] C,4z2C,2C,4- | 
[V:1] z12 | 
[V:2] EDG3CF4E2 | 
[V:3] z12 | 
[V:4] C,2B,,2A,,4G,,4 | 
[V:1] z12 | 
[V:2] F8z4 | 
[V:3] z4z2c2c4- | 
[V:4] F,,8C,3D, | 
[V:1] z12 | 
[V:2] z12 | 
[V:3] c2B2A4G4 | 
[V:4] E,F,G,3F,F,4E,2 | 
[V:1] z12 | 
[V:2] z12 | 
[V:3] F8B3c | 
[V:4] F,4z2F,2G,4- | 
[V:1] z12 | 
[V:2] z4z4F4 | 
[V:3] d_ed4c4=B2 | 
[V:4] G,2F,2E,4D,4 | 
[V:1] G6G2G4- | 
[V:2] G3FEDC2_e3_e | 
[V:3] c12 | 
[V:4] C,12 | 
[V:1] G2F2E4D4 | 
[V:2] _e2d3cc4B2 | 
[V:3] z12 | 
[V:4] z12 | 
[V:1] C8c3B | 
[V:2] c3BA2G2F4- | 
[V:3] z4z2c2c4- | 
[V:4] C,8F,,4 | 
[V:1] A2G4F4E2 | 
[V:2] F2EDC8 | 
[V:3] c2B2A4G4 | 
[V:4] F,,2G,,2A,,2F,,2C,4 | 
[V:1] F4z2C3B,A,2 | 
[V:2] c4z2A4F2 | 
[V:3] F8z2c2- | 
[V:4] F,,8F,4 | 
[V:1] G,2F,2A,4G,2F,2 | 
[V:2] G2A4F2G2A2- | 
[V:3] c2c2F2c6 | 
[V:4] E,2F,6E,2F,2- | 
[V:1] C3B,G,2F,2F4 | 
[V:2] A2F2G2A4F2 | 
[V:3] F2c4c2F4 | 
[V:4] F,4E,2F,2D,4 | 
[V:1] E12 | 
[V:2] A4G8 | 
[V:3] c12 | 
[V:4] C,12 | 
[V:1] z2D4D2E4 | 
[V:2] A2B3AGFc3B | 
[V:3] z12 | 
[V:4] z12 | 
[V:1] E2F4E2D4 | 
[V:2] AGd3cc4=B2 | 
[V:3] z12 | 
[V:4] z12 | 
[V:1] C4z4z4 | 
[V:2] c4G2B3AF2- | 
[V:3] z12 | 
[V:4] C,6B,,6 | 
[V:1] z12 | 
[V:2] FECDEFG3FD2 | 
[V:3] c6B6 | 
[V:4] A,,2C,3B,,G,,2B,,3A,, | 
[V:1] c4c2B4B2 | 
[V:2] F3EC2_E3DB,2 | 
[V:3] A2c3BG2B3A | 
[V:4] F,,4z4_E,,4 | 
[V:1] A2c3BAGB3A | 
[V:2] z2F4F2D4 | 
[V:3] F3GABc2BGB2- | 
[V:4] F,,8G,,4 | 
[V:1] GFA3GF4=E2 | 
[V:2] _E2C3B,C2D2_E2 | 
[V:3] B2A2F4G4 | 
[V:4] _E,,2F,,3G,,A,,2B,,2C,2 | 
[V:1] F12- | 
[V:2] C12 | 
[V:3] F12- | 
[V:4] F,,12- | 
[V:1] F12 ||  
[V:2] c12 ||  
[V:3] F12 ||  
[V:4] F,,12 ||  
[V:1] [M:2/1]z8 | 
[V:2] [M:2/1]F8 | 
[V:3] [M:2/1]z8 | 
[V:4] [M:2/1]z8 | 
[V:1] z8 | 
[V:2] F4G3A | 
[V:3] z8 | 
[V:4] z8 | 
[V:1] z8 | 
[V:2] B2A3GFE | 
[V:3] z8 | 
[V:4] F,8 | 
[V:1] z8 | 
[V:2] D4C4 | 
[V:3] z8 | 
[V:4] F,4G,3A, | 
[V:1] F8 | 
[V:2] z4F4- | 
[V:3] z8 | 
[V:4] B,2A,3G,F,E, | 
[V:1] F4E4- | 
[V:2] F4G2A2- | 
[V:3] z4c4- | 
[V:4] D,4C,4 | 
[V:1] E4E4 | 
[V:2] A2GFc4 | 
[V:3] c2B2A2G2 | 
[V:4] z4C,4 | 
[V:1] F8 | 
[V:2] A2B4AG | 
[V:3] F4B4- | 
[V:4] D,4B,,2D,2- | 
[V:1] D4C4- | 
[V:2] F8 | 
[V:3] B4A4 | 
[V:4] D,2E,2F,4 | 
[V:1] C4z4 | 
[V:2] z2c2B2c2- | 
[V:3] z2A2G2A2- | 
[V:4] F,,4z4 | 
[V:1] z8 | 
[V:2] c2BAG4 | 
[V:3] A2GFE4 | 
[V:4] z8 | 
[V:1] z8 | 
[V:2] z2A2G2A2- | 
[V:3] z2c2B2c2- | 
[V:4] z8 | 
[V:1] z8 | 
[V:2] A2GFE4 | 
[V:3] c2BAG4 | 
[V:4] z8 | 
[V:1] F8 | 
[V:2] z4c4 | 
[V:3] z4A4 | 
[V:4] F,,6G,,2 | 
[V:1] F4E4- | 
[V:2] c4c4- | 
[V:3] A4A4 | 
[V:4] A,,2B,,2C,2D,2 | 
[V:1] E4E4 | 
[V:2] c4c4 | 
[V:3] GFEDC4 | 
[V:4] E,2F,2G,2A,2- | 
[V:1] F8 | 
[V:2] AGFED4- | 
[V:3] F3GABA2- | 
[V:4] A,2D,4C,2 | 
[V:1] D4C4- | 
[V:2] D4E4 | 
[V:3] A2G2A4- | 
[V:4] B,,4A,,4 | 
[V:1] C4z4 | 
[V:2] FGABc2d2 | 
[V:3] A4z4 | 
[V:4] z4F,4 | 
[V:1] z8 | 
[V:2] _ed_ed_e2d2- | 
[V:3] z8 | 
[V:4] G,4G,2F,2- | 
[V:1] z8 | 
[V:2] dcBAG4 | 
[V:3] z4z2c2- | 
[V:4] F,2F,2E,2C,2 | 
[V:1] z4F4 | 
[V:2] z4d4 | 
[V:3] c2BAB4 | 
[V:4] E,2F,2D,4 | 
[V:1] G4G2F2- | 
[V:2] _ed_ed_e2d2- | 
[V:3] z8 | 
[V:4] C,4B,,4- | 
[V:1] F2F2E2C2 | 
[V:2] dcBAG4- | 
[V:3] z4z2c2- | 
[V:4] B,,4C,4 | 
[V:1] E2F2D4 | 
[V:2] G8 | 
[V:3] c2=BA=B4 | 
[V:4] G,,8 | 
[V:1] C8- | 
[V:2] z2C2C2C2 | 
[V:3] c6BA | 
[V:4] A,,8 | 
[V:1] C8 | 
[V:2] F8 | 
[V:3] A8 | 
[V:4] z2F,,2F,,2F,,2 | 
[V:1] z8 | 
[V:2] z4z2F2 | 
[V:3] z2F2F2F2 | 
[V:4] B,,8 | 
[V:1] z8 | 
[V:2] _E4D4 | 
[V:3] B8 | 
[V:4] z4z2B,,2 | 
[V:1] z8 | 
[V:2] CD=EFB,2D2- | 
[V:3] z4z2B2 | 
[V:4] A,,4G,,4 | 
[V:1] z8 | 
[V:2] DCF4E2 | 
[V:3] A4G4 | 
[V:4] F,,4z2C,2 | 
[V:1] F8 | 
[V:2] FGABc2d2- | 
[V:3] F8 | 
[V:4] D,2F,3E,D,C, | 
[V:1] F4E4- | 
[V:2] dcBAG4 | 
[V:3] z4c4 | 
[V:4] B,,4C,4 | 
[V:1] E4E4 | 
[V:2] C8 | 
[V:3] c4c4 | 
[V:4] A,,4z2C,2 | 
[V:1] F8 | 
[V:2] F3GA2B2- | 
[V:3] A3Bc2d2- | 
[V:4] D,2F,3E,D,C, | 
[V:1] D4C4- | 
[V:2] BAGFE4 | 
[V:3] dcBAG4 | 
[V:4] B,,4C,4 | 
[V:1] C4z4 | 
[V:2] z4A4 | 
[V:3] z4F4 | 
[V:4] F,,8 | 
[V:1] z8 | 
[V:2] B4c4 | 
[V:3] G4E4 | 
[V:4] z8 | 
[V:1] z8 | 
[V:2] A3Bc2d2- | 
[V:3] F3GA2B2- | 
[V:4] z8 | 
[V:1] z8 | 
[V:2] dcBAG4 | 
[V:3] BAGFE4 | 
[V:4] z4C,4 | 
[V:1] F8 | 
[V:2] F8 | 
[V:3] FGABc2d2- | 
[V:4] D,2F,3E,D,C, | 
[V:1] F4E4- | 
[V:2] z4c4 | 
[V:3] dcBAG4 | 
[V:4] B,,4C,4 | 
[V:1] E4E4 | 
[V:2] c4c4 | 
[V:3] C8 | 
[V:4] A,,4z2C,2 | 
[V:1] F8 | 
[V:2] A3Bc2d2- | 
[V:3] F3GA2B2- | 
[V:4] D,2F,3E,D,C, | 
[V:1] D4C4- | 
[V:2] dcBAG4 | 
[V:3] BAGFE4 | 
[V:4] B,,4C,4 | 
[V:1] C4z4 | 
[V:2] F8 | 
[V:3] z4c4- | 
[V:4] F,,8 | 
[V:1] z8 | 
[V:2] C3DE2F2- | 
[V:3] c2BAG2A2- | 
[V:4] z8 | 
[V:1] z8 | 
[V:2] FGABG2c2- | 
[V:3] AGF2E2C2 | 
[V:4] z8 | 
[V:1] z4F4 | 
[V:2] c2BAB4 | 
[V:3] E2F2D4 | 
[V:4] z8 | 
[V:1] G4G2F2- | 
[V:2] z2c3BAG | 
[V:3] C3DE2F2- | 
[V:4] z8 | 
[V:1] F2F2E2C2 | 
[V:2] F4C4 | 
[V:3] FGABG2c2- | 
[V:4] z8 | 
[V:1] E2F2D4 | 
[V:2] G8 | 
[V:3] c2=BA=B4 | 
[V:4] z4G,,4 | 
[V:1] C8- | 
[V:2] C2F2E2A2 | 
[V:3] c4C2F2 | 
[V:4] A,,2F,,2A,,3B,, | 
[V:1] C8 | 
[V:2] G2c3BA2 | 
[V:3] E2A2G2c2- | 
[V:4] C,2A,,4C,2- | 
[V:1] z8 | 
[V:2] G2F2z2F2- | 
[V:3] c2BAB2c2 | 
[V:4] C,D,E,2F,G,A,2- | 
[V:1] z8 | 
[V:2] F2D2C4 | 
[V:3] F4G4 | 
[V:4] A,F,F,4E,2 | 
[V:1] z8 | 
[V:2] z2c4BA | 
[V:3] F8 | 
[V:4] F,8 | 
[V:1] z8 | 
[V:2] B2c2F4 | 
[V:3] z8 | 
[V:4] z8 | 
[V:1] F8 | 
[V:2] z4A4 | 
[V:3] z4F4- | 
[V:4] F,6E,2 | 
[V:1] F4E4- | 
[V:2] B4c4- | 
[V:3] F4G4 | 
[V:4] D,4C,4 | 
[V:1] E4E4 | 
[V:2] c2c2c4 | 
[V:3] A6A2 | 
[V:4] A,,8 | 
[V:1] F8 | 
[V:2] z4F4 | 
[V:3] A4D4- | 
[V:4] D,6C,2 | 
[V:1] D4C4- | 
[V:2] G4A4- | 
[V:3] D4E4 | 
[V:4] B,,4A,,4 | 
[V:1] C4z4 | 
[V:2] A2A2A4 | 
[V:3] F6F2 | 
[V:4] F,,8 | 
[V:1] z8 | 
[V:2] A4A4 | 
[V:3] F4C2F2- | 
[V:4] z8 | 
[V:1] z8 | 
[V:2] A6B2- | 
[V:3] FGABc2d2- | 
[V:4] z8 | 
[V:1] z8 | 
[V:2] BAA4G2 | 
[V:3] dcA2B4 | 
[V:4] z8 | 
[V:1] F8 | 
[V:2] A8 | 
[V:3] A8 | 
[V:4] F,4D,2F,2- | 
[V:1] F4E4- | 
[V:2] F4G4 | 
[V:3] z4z2c2- | 
[V:4] F,2E,D,C,4 | 
[V:1] E4E4 | 
[V:2] C8 | 
[V:3] c2BAG2A2 | 
[V:4] z4C,4 | 
[V:1] F8 | 
[V:2] z8 | 
[V:3] z2B4AG | 
[V:4] D,4B,,2D,2- | 
[V:1] D4C4- | 
[V:2] z8 | 
[V:3] F2G2z2A2- | 
[V:4] D,2C,B,,A,,4 | 
[V:1] C4z4 | 
[V:2] z4c4 | 
[V:3] A2GFE2F2 | 
[V:4] z4A,,4 | 
[V:1] z8 | 
[V:2] d4B2d2- | 
[V:3] z2G4FE | 
[V:4] B,,4G,,2B,,2- | 
[V:1] z8 | 
[V:2] d2cBA4 | 
[V:3] D2E2z2F2- | 
[V:4] B,,2A,,G,,F,,4- | 
[V:1] z4F4 | 
[V:2] z4A4 | 
[V:3] F2EDC2D2 | 
[V:4] F,,2F,,2F,,4 | 
[V:1] G4G2F2- | 
[V:2] B4c4 | 
[V:3] _E4C4 | 
[V:4] _E,,6F,,2- | 
[V:1] F2F2E2C2 | 
[V:2] A4G4 | 
[V:3] c4z2G2 | 
[V:4] F,,G,,A,,B,,C,4 | 
[V:1] E2F2D4 | 
[V:2] z2F2G2B2 | 
[V:3] A4B4 | 
[V:4] z4z2G,,2 | 
[V:1] C8- | 
[V:2] A4G2E2 | 
[V:3] c4z2G2 | 
[V:4] A,,2B,,2C,4 | 
[V:1] C8 | 
[V:2] F3EC4 | 
[V:3] A2B2c4 | 
[V:4] z4z2C,2 | 
[V:1] z8 | 
[V:2] z8 | 
[V:3] B4A2B2- | 
[V:4] D,2E,2F,2D,2- | 
[V:1] z8 | 
[V:2] z8 | 
[V:3] BAA4G2 | 
[V:4] D,2C,2B,,4 | 
[V:1] z8 | 
[V:2] z8 | 
[V:3] A8- | 
[V:4] A,,8 | 
[V:1] z8 | 
[V:2] z4c4- | 
[V:3] A8 | 
[V:4] F,,8 | 
[V:1] F8 | 
[V:2] c4A4 | 
[V:3] z4c4 | 
[V:4] F,8 | 
[V:1] F4E4- | 
[V:2] B4G4- | 
[V:3] d4B4 | 
[V:4] D,4E,4 | 
[V:1] E4E4 | 
[V:2] G4A4- | 
[V:3] c8 | 
[V:4] C,8 | 
[V:1] F8 | 
[V:2] A4F4 | 
[V:3] z4A4 | 
[V:4] D,8 | 
[V:1] D4C4- | 
[V:2] G4E4- | 
[V:3] B4G4 | 
[V:4] B,,4C,4 | 
[V:1] C4z4 | 
[V:2] E4c4 | 
[V:3] A8 | 
[V:4] A,,8 | 
[V:1] z8 | 
[V:2] d4B4 | 
[V:3] F2G3FED | 
[V:4] B,,4G,,4 | 
[V:1] z8 | 
[V:2] c4A2B2- | 
[V:3] C4z4 | 
[V:4] A,,4F,,2G,,2- | 
[V:1] z8 | 
[V:2] BAGFG4 | 
[V:3] z8 | 
[V:4] G,,F,,=E,,D,,=E,,4 | 
[V:1] F8 | 
[V:2] F8 | 
[V:3] z4z2A2- | 
[V:4] F,,8 | 
[V:1] F4E4- | 
[V:2] z8 | 
[V:3] A2GFA2G2- | 
[V:4] z8 | 
[V:1] E4E4 | 
[V:2] z4c4 | 
[V:3] GFEDC4 | 
[V:4] z8 | 
[V:1] F8 | 
[V:2] A2d3c=BA | 
[V:3] z8 | 
[V:4] z8 | 
[V:1] D4C4- | 
[V:2] =B4c4 | 
[V:3] z8 | 
[V:4] z8 | 
[V:1] C4z4 | 
[V:2] z4A4- | 
[V:3] c6c2 | 
[V:4] F,6F,2 | 
[V:1] z8 | 
[V:2] A2A2A2A2 | 
[V:3] c4c4 | 
[V:4] F,4F,4 | 
[V:1] z8 | 
[V:2] A4z2A2- | 
[V:3] c4z4 | 
[V:4] F,4z4 | 
[V:1] z4F4 | 
[V:2] A2GFA4 | 
[V:3] c3Bc2d2 | 
[V:4] F,6E,D, | 
[V:1] G4G2F2- | 
[V:2] G4E2F2 | 
[V:3] B2c4A2- | 
[V:4] E,2C,4D,2- | 
[V:1] F2F2E2C2 | 
[V:2] D4C4 | 
[V:3] A2B2G2c2- | 
[V:4] D,2C,B,,C,2A,,2 | 
[V:1] E2F2D4 | 
[V:2] z4D4 | 
[V:3] c2A4G2 | 
[V:4] C,2D,2B,,4 | 
[V:1] C8- | 
[V:2] E8 | 
[V:3] !fermata!A8- | 
[V:4] A,,8- | 
[V:1] C8 ||  
[V:2] !fermata!E8 ||  
[V:3] A8 ||  
[V:4] A,,8 ||  
[V:1] [M:3/1]z12 | 
[V:2] [M:3/1]z12 | 
[V:3] [M:3/1]F8F4 | 
[V:4] [M:3/1]z12 | 
[V:1] z12 | 
[V:2] z12 | 
[V:3] B8B4 | 
[V:4] z12 | 
[V:1] z4z4G4 | 
[V:2] C8C4 | 
[V:3] A4G8 | 
[V:4] z12 | 
[V:1] A8A4 | 
[V:2] F8F4 | 
[V:3] F12 | 
[V:4] z12 | 
[V:1] G4F8 | 
[V:2] E4D8 | 
[V:3] z12 | 
[V:4] z12 | 
[V:1] E8z4 | 
[V:2] C12 | 
[V:3] c4c4c4 | 
[V:4] z4z4C,4 | 
[V:1] F4F4F4 | 
[V:2] z12 | 
[V:3] F12 | 
[V:4] D,8D,4 | 
[V:1] E8z4 | 
[V:2] G4G4G4 | 
[V:3] z12 | 
[V:4] C,8z4 | 
[V:1] G8G4 | 
[V:2] C12 | 
[V:3] c8c4 | 
[V:4] E,8E,4 | 
[V:1] G4C4D4 | 
[V:2] z12 | 
[V:3] c4A4B4 | 
[V:4] E,4F,4D,4 | 
[V:1] E8E4 | 
[V:2] G8G4 | 
[V:3] c12 | 
[V:4] C,8C,4 | 
[V:1] D4C2B,2A,4 | 
[V:2] G4E4F4 | 
[V:3] z12 | 
[V:4] B,,4C,4D,4 | 
[V:1] G,8D4 | 
[V:2] G8G4 | 
[V:3] z12 | 
[V:4] G,,6A,,2B,,4 | 
[V:1] E6FGA4 | 
[V:2] G8F4 | 
[V:3] c8c4 | 
[V:4] C,8z4 | 
[V:1] G4F8 | 
[V:2] E4D8 | 
[V:3] c4A4B4 | 
[V:4] z12 | 
[V:1] E6F2G4 | 
[V:2] C12 | 
[V:3] c8c4 | 
[V:4] z12 | 
[V:1] A4G6F2 | 
[V:2] C12- | 
[V:3] c8B4 | 
[V:4] z12 | 
[V:1] F8E4 | 
[V:2] C12 | 
[V:3] A4G8 | 
[V:4] z12 | 
[V:1] F12 | 
[V:2] c8d4 | 
[V:3] F4D8 | 
[V:4] F,8F,4 | 
[V:1] z12 | 
[V:2] e6B2c4 | 
[V:3] C4G8 | 
[V:4] E,6D,2E,4 | 
[V:1] F8F4 | 
[V:2] d6A2B4 | 
[V:3] A4F6E2 | 
[V:4] F,4D,8 | 
[V:1] E6D2E4 | 
[V:2] c8z4 | 
[V:3] G4z4c4 | 
[V:4] C,8z4 | 
[V:1] F4D8 | 
[V:2] F8G4 | 
[V:3] d8B4 | 
[V:4] B,,8B,,4 | 
[V:1] C8z4 | 
[V:2] A6E2F4 | 
[V:3] c8C4 | 
[V:4] A,,6G,,2A,,4 | 
[V:1] B,8B,4 | 
[V:2] G6D2E4 | 
[V:3] D4B,8 | 
[V:4] B,,4G,,8 | 
[V:1] A,6G,2A,4 | 
[V:2] F12 | 
[V:3] C12 | 
[V:4] F,,12 | 
[V:1] B,4G,8 | 
[V:2] G4B8 | 
[V:3] z12 | 
[V:4] z12 | 
[V:1] F,12 | 
[V:2] A8D4 | 
[V:3] c8d4 | 
[V:4] F,8F,4 | 
[V:1] z12 | 
[V:2] C4G8 | 
[V:3] e6B2c4 | 
[V:4] E,6D,2E,4 | 
[V:1] F8F4 | 
[V:2] A4F6E2 | 
[V:3] d6A2B4 | 
[V:4] F,4D,8 | 
[V:1] E6D2E4 | 
[V:2] G4z4c4 | 
[V:3] c8z4 | 
[V:4] C,8z4 | 
[V:1] F4D8 | 
[V:2] d8B4 | 
[V:3] F8G4 | 
[V:4] B,,8B,,4 | 
[V:1] C8z4 | 
[V:2] c8C4 | 
[V:3] A6E2F4 | 
[V:4] A,,6G,,2A,,4 | 
[V:1] B,8B,4 | 
[V:2] D4B,8 | 
[V:3] G6D2E4 | 
[V:4] B,,4G,,8 | 
[V:1] A,6G,2A,4 | 
[V:2] C4z4c4 | 
[V:3] F12 | 
[V:4] F,,12 | 
[V:1] B,4G,8 | 
[V:2] d8B4 | 
[V:3] z12 | 
[V:4] z12 | 
[V:1] F,12 | 
[V:2] c4A8 | 
[V:3] z4z4c4 | 
[V:4] z4z4F,4 | 
[V:1] z12 | 
[V:2] G12 | 
[V:3] B4_e6d2 | 
[V:4] G,8E,4 | 
[V:1] z4z4F4 | 
[V:2] z12 | 
[V:3] c8=B4 | 
[V:4] F,4D,8 | 
[V:1] G8E4 | 
[V:2] z4z4c4 | 
[V:3] c12 | 
[V:4] C,12 | 
[V:1] F4D8 | 
[V:2] d8B4 | 
[V:3] z12 | 
[V:4] z12 | 
[V:1] C12 | 
[V:2] c4A8 | 
[V:3] z4z4c4 | 
[V:4] z4z4F,4 | 
[V:1] z12 | 
[V:2] G12 | 
[V:3] B4_e6d2 | 
[V:4] G,8E,4 | 
[V:1] z4z4F4 | 
[V:2] z12 | 
[V:3] c8=B4 | 
[V:4] F,4D,8 | 
[V:1] G8E4 | 
[V:2] z4z4c4 | 
[V:3] c12 | 
[V:4] C,12 | 
[V:1] F4D8 | 
[V:2] d6c2B2A2 | 
[V:3] z4z4F4 | 
[V:4] z4z4B,,4 | 
[V:1] C8C4 | 
[V:2] G4C8 | 
[V:3] E4A6G2 | 
[V:4] C,8A,,4 | 
[V:1] F4G4B4 | 
[V:2] D4B,6A,2 | 
[V:3] F8E4 | 
[V:4] B,,4G,,8 | 
[V:1] [M:2/1]A8 | 
[V:2] [M:2/1]C4z2C2 | 
[V:3] [M:2/1]F8- | 
[V:4] [M:2/1]F,,8 | 
[V:1] F6ED | 
[V:2] D4C4 | 
[V:3] F8 | 
[V:4] z4F,,4 | 
[V:1] C2D2B,2D2 | 
[V:2] F8 | 
[V:3] z4F4 | 
[V:4] F,,2B,,4B,,2 | 
[V:1] C2D2B,2D2 | 
[V:2] z8 | 
[V:3] F2B4B2 | 
[V:4] A,,2G,,2B,,3A,, | 
[V:1] C4z2A2- | 
[V:2] C4C2F2- | 
[V:3] A2G4F2 | 
[V:4] F,,2C,2C,2F,,2- | 
[V:1] A2G2G2F2- | 
[V:2] F2F2E2D2- | 
[V:3] z2c2c2F2 | 
[V:4] F,,G,,A,,B,,C,2D,2 | 
[V:1] F2E2D4 | 
[V:2] D2C2G2G2 | 
[V:3] z2c4B2 | 
[V:4] B,,2C,2G,,4 | 
[V:1] C4D4 | 
[V:2] C4z2G2- | 
[V:3] c2A2z2B2- | 
[V:4] A,,4z2G,,2- | 
[V:1] z2C2D2E2 | 
[V:2] G2F2G2E2 | 
[V:3] B2A2B2G2 | 
[V:4] G,,2A,,2G,,2C,2- | 
[V:1] C2z2C2D2 | 
[V:2] z2A4G2 | 
[V:3] z2c4B2 | 
[V:4] C,A,,A,,4B,,2 | 
[V:1] E2F4D2 | 
[V:2] A2F2z2F2- | 
[V:3] c2A2z2B2- | 
[V:4] A,,2D,3B,,B,,2 | 
[V:1] E4D2E2- | 
[V:2] F2E2F2E2 | 
[V:3] B2A2B2G2 | 
[V:4] C,4B,,2C,2- | 
[V:1] E2C2D4 | 
[V:2] z2E4D2 | 
[V:3] z2A4G2 | 
[V:4] C,2A,,2B,,4 | 
[V:1] C4z4 | 
[V:2] E4z2D2 | 
[V:3] A2G2A2G2 | 
[V:4] A,,2C,3A,,B,,2 | 
[V:1] z8 | 
[V:2] E2F2D2E2 | 
[V:3] A2F2G4 | 
[V:4] C,2D,2B,,2C,2 | 
[V:1] C4D4 | 
[V:2] z2E4D2 | 
[V:3] z2A4G2 | 
[V:4] A,,4B,,4 | 
[V:1] C3B,C2D2 | 
[V:2] E4z2D2 | 
[V:3] A2G2A2G2 | 
[V:4] A,,2C,3A,,B,,2 | 
[V:1] C2F4E2 | 
[V:2] E2F2D2E2 | 
[V:3] A2F2G4 | 
[V:4] C,2D,2B,,2C,2 | 
[V:1] F8- | 
[V:2] C2D2C2D2- | 
[V:3] F8- | 
[V:4] A,,2B,,2A,,2B,,2- | 
[V:1] F8- | 
[V:2] DB,C2D4 | 
[V:3] F8- | 
[V:4] B,,2A,,2B,,3A,, | 
[V:1] F8 |]  
[V:2] C8 |]  
[V:3] F8 |]  
[V:4] F,,8 |]  



